X: 1360
T: The Man with the Money
R:Reel
N:Collected by J. O'Neill
B:O'Neill's 1360
Z:Transcribed by Trish O'Neil
M:C|
L:1/8
K:Em
F|E2BE GEGe|E2BG FDDF|E2BE GABG|FdAG FDDF|
E2BE GEGe|E2BG FDDF|EFGE FGAF|GdAG|FD D||
F|EeeB GABG|FDdD FAFD|EedB cABG|FDFA dAFD|
EeeB GBAF|EedA FDDF|Eege f^deB|dcBA FD D|]


